X: 5
T: Monvara Bridge
Z: Phantom Button
S: https://thesession.org/tunes/9520#setting29753
R: polka
M: 2/4
L: 1/8
K: Gmaj
D|:GB BA | GB B2 | AB cd | ed BA |GB BA|
GB B2|AB cA|1 GF G-G/D/ :|2 GF G-G/B/||
|:dg g/a/g/e/|dB B2|AB cd|ed B-B/c/|
dg g/a/g/e/|dB B2|AB cA| GF G-G/B/ :||
|:dg ga|bg g2|e/f/g ed|dB B-B/c/|
dg ga|bg g2|e/f/g ed|1 g2 ge:|2 g2 ge||
dB BA|
